;FLAVOR:Marlin
;TIME:3713
;Filament used: 2.37735m
;Layer height: 0.2
;MINX:85.9
;MINY:85.9
;MINZ:0.2
;MAXX:149.1
;MAXY:149.1
;MAXZ:11.4
;Generated with Cura_SteamEngine 5.4.0
M82 ;absolute extrusion mode
; Ender 3 Custom Start G-code
G92 E0 ; Reset Extruder
G1 Z2.0 F3000 ; Move Z Axis up little to prevent scratching of Heat Bed

M140 S80.0     ; set bed temperature to e.g. 55 째C and continue
M104 S230   ; set hot end temperature to e.g. 210 째C and continue
M190 S80.0     ; wait for bed temperature to reach e.g. 55 째C
G28
G29
M109 S230   ; wait for hot end temperature to reach e.g. 210 째C

G1 X0.1 Y20 Z0.3 F5000.0 ; Move to start position
G1 X0.1 Y200.0 Z0.3 F1500.0 E15 ; Draw the first line
G1 X0.4 Y200.0 Z0.3 F5000.0 ; Move to side a little
G1 X0.4 Y20 Z0.3 F1500.0 E30 ; Draw the second line
G92 E0 ; Reset Extruder
G1 Z2.0 F3000 ; Move Z Axis up little to prevent scratching of Heat Bed
G1 X5 Y20 Z0.3 F5000.0 ; Move over to prevent blob squish
G92 E0
G92 E0
G1 F2700 E-5
;LAYER_COUNT:57
;LAYER:0
M107
G0 F6000 X89.356 Y88.913 Z0.2
;TYPE:SKIRT
G1 F2700 E0
G1 F1200 X90.092 Y88.276 E0.03237
G1 X90.824 Y87.746 E0.06243
G1 X91.721 Y87.211 E0.09717
G1 X92.599 Y86.79 E0.12956
G1 X93.512 Y86.448 E0.16198
G1 X94.449 Y86.189 E0.19432
G1 X95.416 Y86.011 E0.22702
G1 X96.555 Y85.915 E0.26504
G1 X97.212 Y85.9 E0.2869
G1 X137.404 Y85.9 E1.62369
G1 X138.284 Y85.913 E1.65296
G1 X139.256 Y85.972 E1.68535
G1 X140.219 Y86.118 E1.71774
G1 X141.166 Y86.349 E1.75016
G1 X142.054 Y86.649 E1.78134
G1 X142.946 Y87.039 E1.81372
G1 X143.829 Y87.526 E1.84726
G1 X144.58 Y88.028 E1.8773
G1 X145.395 Y88.686 E1.91214
G1 X146.093 Y89.364 E1.94451
G1 X146.729 Y90.101 E1.97688
G1 X147.299 Y90.891 E2.00929
G1 X147.761 Y91.667 E2.03932
G1 X148.215 Y92.609 E2.0741
G1 X148.544 Y93.487 E2.10529
G1 X148.813 Y94.459 E2.13883
G1 X148.99 Y95.425 E2.1715
G1 X149.085 Y96.555 E2.20921
G1 X149.1 Y97.23 E2.23167
G1 X149.099 Y137.5 E3.57105
G1 X149.088 Y138.263 E3.59643
G1 X149.031 Y139.236 E3.62885
G1 X148.886 Y140.199 E3.66124
G1 X148.657 Y141.145 E3.69362
G1 X148.346 Y142.069 E3.72604
G1 X147.954 Y142.96 E3.75842
G1 X147.486 Y143.812 E3.79075
G1 X146.964 Y144.593 E3.82199
G1 X146.331 Y145.378 E3.85553
G1 X145.706 Y146.029 E3.88555
G1 X144.917 Y146.717 E3.92037
G1 X144.157 Y147.267 E3.95157
G1 X143.29 Y147.784 E3.98514
G1 X142.412 Y148.206 E4.01754
G1 X141.501 Y148.548 E4.04991
G1 X140.562 Y148.809 E4.08232
G1 X139.596 Y148.987 E4.115
G1 X138.445 Y149.085 E4.15342
G1 X137.77 Y149.1 E4.17587
G1 X97.464 Y149.099 E5.51646
G1 X96.731 Y149.088 E5.54084
G1 X95.759 Y149.031 E5.57322
G1 X94.796 Y148.885 E5.60562
G1 X93.85 Y148.656 E5.63799
G1 X92.926 Y148.344 E5.67043
G1 X92.036 Y147.952 E5.70277
G1 X91.213 Y147.501 E5.73399
G1 X90.374 Y146.94 E5.76756
G1 X89.67 Y146.374 E5.7976
G1 X88.917 Y145.649 E5.83237
G1 X88.28 Y144.913 E5.86474
G1 X87.75 Y144.182 E5.89477
G1 X87.214 Y143.285 E5.92953
G1 X86.792 Y142.407 E5.96193
G1 X86.45 Y141.495 E5.99432
G1 X86.19 Y140.557 E6.0267
G1 X86.012 Y139.588 E6.05947
G1 X85.914 Y138.409 E6.09881
G1 X85.9 Y137.758 E6.12047
G1 X85.901 Y97.425 E7.46195
G1 X85.912 Y96.725 E7.48524
G1 X85.97 Y95.752 E7.51766
G1 X86.116 Y94.789 E7.55005
G1 X86.346 Y93.843 E7.58243
G1 X86.659 Y92.92 E7.61485
G1 X87.051 Y92.03 E7.6472
G1 X87.521 Y91.177 E7.67959
G1 X88.064 Y90.369 E7.71197
G1 X88.631 Y89.665 E7.74203
G1 X89.356 Y88.913 E7.77677
G0 F6000 X89.618 Y89.215
G1 F1200 X90.327 Y88.6 E7.80799
G1 X91.059 Y88.07 E7.83805
G1 X91.895 Y87.571 E7.87043
G1 X92.74 Y87.164 E7.90163
G1 X93.619 Y86.833 E7.93287
G1 X94.522 Y86.582 E7.96404
G1 X95.45 Y86.41 E7.99543
G1 X96.589 Y86.314 E8.03345
G1 X97.221 Y86.3 E8.05447
G1 X137.398 Y86.3 E9.39077
G1 X138.26 Y86.312 E9.41944
G1 X139.197 Y86.368 E9.45066
G1 X140.125 Y86.507 E9.48187
G1 X141.038 Y86.728 E9.51311
G1 X141.894 Y87.016 E9.54315
G1 X142.786 Y87.406 E9.57553
G1 X143.607 Y87.859 E9.60672
G1 X144.358 Y88.361 E9.63676
G1 X145.117 Y88.973 E9.66919
G1 X145.791 Y89.626 E9.70041
G1 X146.405 Y90.335 E9.7316
G1 X146.955 Y91.096 E9.76283
G1 X147.417 Y91.872 E9.79287
G1 X147.84 Y92.749 E9.82525
G1 X148.169 Y93.627 E9.85644
G1 X148.42 Y94.532 E9.88767
G1 X148.591 Y95.459 E9.91903
G1 X148.686 Y96.589 E9.95674
G1 X148.7 Y97.23 E9.97807
G1 X148.699 Y137.495 E11.31729
G1 X148.689 Y138.24 E11.34207
G1 X148.635 Y139.177 E11.37328
G1 X148.497 Y140.106 E11.40452
G1 X148.278 Y141.018 E11.43572
G1 X147.98 Y141.908 E11.46693
G1 X147.603 Y142.768 E11.49817
G1 X147.153 Y143.59 E11.52933
G1 X146.631 Y144.371 E11.56058
G1 X146.042 Y145.101 E11.59178
G1 X145.417 Y145.752 E11.62179
G1 X144.682 Y146.393 E11.65423
G1 X143.922 Y146.943 E11.68543
G1 X143.116 Y147.424 E11.71665
G1 X142.271 Y147.832 E11.74786
G1 X141.393 Y148.163 E11.77907
G1 X140.489 Y148.416 E11.81029
G1 X139.562 Y148.588 E11.84165
G1 X138.411 Y148.686 E11.88007
G1 X137.77 Y148.7 E11.90139
G1 X97.47 Y148.699 E13.24178
G1 X96.754 Y148.689 E13.26559
G1 X95.818 Y148.635 E13.29678
G1 X94.889 Y148.496 E13.32802
G1 X93.977 Y148.277 E13.35922
G1 X93.087 Y147.978 E13.39044
G1 X92.228 Y147.601 E13.42164
G1 X91.405 Y147.15 E13.45286
G1 X90.625 Y146.628 E13.48407
G1 X89.921 Y146.062 E13.51412
G1 X89.219 Y145.387 E13.54651
G1 X88.604 Y144.678 E13.57773
G1 X88.074 Y143.947 E13.60776
G1 X87.574 Y143.111 E13.64016
G1 X87.166 Y142.266 E13.67137
G1 X86.835 Y141.388 E13.70258
G1 X86.583 Y140.484 E13.73379
G1 X86.411 Y139.555 E13.76521
G1 X86.313 Y138.376 E13.80456
G1 X86.3 Y137.758 E13.82512
G1 X86.301 Y97.431 E15.1664
G1 X86.311 Y96.748 E15.18912
G1 X86.366 Y95.811 E15.22034
G1 X86.505 Y94.883 E15.25155
G1 X86.725 Y93.971 E15.28275
G1 X87.025 Y93.081 E15.31399
G1 X87.402 Y92.222 E15.34519
G1 X87.853 Y91.4 E15.37638
G1 X88.376 Y90.62 E15.40761
G1 X88.943 Y89.916 E15.43768
G1 X89.618 Y89.215 E15.47004
G0 F6000 X89.881 Y89.517
G1 F1200 X90.562 Y88.924 E15.50008
G1 X91.294 Y88.394 E15.53014
G1 X92.069 Y87.931 E15.56016
G1 X92.882 Y87.538 E15.5902
G1 X93.727 Y87.218 E15.62025
G1 X94.596 Y86.975 E15.65026
G1 X95.484 Y86.809 E15.68031
G1 X96.623 Y86.713 E15.71832
G1 X97.23 Y86.7 E15.73852
G1 X137.393 Y86.7 E17.07435
G1 X138.237 Y86.711 E17.10242
G1 X139.139 Y86.764 E17.13247
G1 X140.032 Y86.896 E17.1625
G1 X140.91 Y87.107 E17.19253
G1 X141.766 Y87.395 E17.22257
G1 X142.593 Y87.757 E17.25259
G1 X143.385 Y88.192 E17.28265
G1 X144.136 Y88.694 E17.31269
G1 X144.839 Y89.261 E17.34273
G1 X145.489 Y89.888 E17.37277
G1 X146.081 Y90.57 E17.40281
G1 X146.611 Y91.301 E17.43284
G1 X147.073 Y92.077 E17.46288
G1 X147.466 Y92.89 E17.49291
G1 X147.784 Y93.735 E17.52294
G1 X148.027 Y94.605 E17.55298
G1 X148.192 Y95.493 E17.58302
G1 X148.287 Y96.623 E17.62074
G1 X148.3 Y97.23 E17.64093
G1 X148.299 Y137.49 E18.97999
G1 X148.29 Y138.217 E19.00417
G1 X148.239 Y139.119 E19.03422
G1 X148.108 Y140.013 E19.06427
G1 X147.899 Y140.891 E19.09429
G1 X147.613 Y141.748 E19.12434
G1 X147.252 Y142.576 E19.15438
G1 X146.82 Y143.368 E19.18439
G1 X146.319 Y144.12 E19.21444
G1 X145.753 Y144.824 E19.24448
G1 X145.128 Y145.475 E19.2745
G1 X144.447 Y146.069 E19.30456
G1 X143.716 Y146.6 E19.33461
G1 X142.942 Y147.064 E19.36462
G1 X142.129 Y147.458 E19.39467
G1 X141.285 Y147.778 E19.42469
G1 X140.415 Y148.023 E19.45475
G1 X139.528 Y148.189 E19.48477
G1 X138.377 Y148.287 E19.52319
G1 X137.77 Y148.3 E19.54338
G1 X97.475 Y148.299 E20.8836
G1 X96.777 Y148.29 E20.90682
G1 X95.876 Y148.239 E20.93683
G1 X94.982 Y148.107 E20.96689
G1 X94.104 Y147.898 E20.99691
G1 X93.247 Y147.611 E21.02697
G1 X92.42 Y147.25 E21.05698
G1 X91.627 Y146.817 E21.08703
G1 X90.876 Y146.316 E21.11706
G1 X90.172 Y145.75 E21.1471
G1 X89.521 Y145.124 E21.17714
G1 X88.928 Y144.443 E21.20717
G1 X88.398 Y143.712 E21.2372
G1 X87.934 Y142.937 E21.26725
G1 X87.54 Y142.124 E21.2973
G1 X87.22 Y141.28 E21.32732
G1 X86.976 Y140.41 E21.35737
G1 X86.81 Y139.522 E21.38742
G1 X86.713 Y138.367 E21.42597
G1 X86.7 Y137.758 E21.44623
G1 X86.701 Y97.436 E22.78734
G1 X86.71 Y96.771 E22.80946
G1 X86.762 Y95.869 E22.83951
G1 X86.894 Y94.976 E22.86954
G1 X87.104 Y94.098 E22.89956
G1 X87.391 Y93.241 E22.92962
G1 X87.753 Y92.414 E22.95965
G1 X88.186 Y91.622 E22.98967
G1 X88.688 Y90.871 E23.01972
G1 X89.255 Y90.167 E23.04978
G1 X89.881 Y89.517 E23.0798
G1 F2700 E18.0798
G0 F6000 X97.1 Y97.1
G1 F2700 E23.0798
G1 F1200 X137.9 Y97.1 E24.43681
G1 X137.9 Y137.9 E25.79382
G1 X97.1 Y137.9 E27.15084
G1 X97.1 Y97.1 E28.50785
G0 F6000 X97.5 Y97.5
G1 F1200 X137.5 Y97.5 E29.83826
G1 X137.5 Y137.5 E31.16866
G1 X97.5 Y137.5 E32.49907
G1 X97.5 Y97.5 E33.82947
G0 F6000 X97.9 Y97.9
G1 F1200 X137.1 Y97.9 E35.13327
G1 X137.1 Y137.1 E36.43707
G1 X97.9 Y137.1 E37.74086
G1 X97.9 Y97.9 E39.04466
G0 F6000 X98.3 Y98.3
G1 F1200 X136.7 Y98.3 E40.32185
G1 X136.7 Y136.7 E41.59904
G1 X98.3 Y136.7 E42.87623
G1 X98.3 Y98.3 E44.15342
G0 F6000 X98.7 Y98.7
G1 F1200 X136.3 Y98.7 E45.404
G1 X136.3 Y112.686 E45.86918
G1 X136.088 Y112.535 E45.87783
G1 X135.741 Y112.383 E45.89043
G1 X135.2 Y112.3 E45.90864
G1 X99.8 Y112.3 E47.08605
G1 X99.423 Y112.34 E47.09865
G1 X99.063 Y112.458 E47.11126
G1 X98.736 Y112.648 E47.12383
G1 X98.7 Y112.681 E47.12546
G1 X98.7 Y98.7 E47.59047
G0 F6000 X99.1 Y99.1
G1 F1200 X135.9 Y99.1 E48.81444
G1 X135.9 Y112.025 E49.24433
G1 X135.713 Y111.961 E49.2509
G1 X135.2 Y111.9 E49.26808
G1 X99.8 Y111.9 E50.44549
G1 X99.383 Y111.94 E50.45943
G1 X99.1 Y112.023 E50.46924
G1 X99.1 Y99.1 E50.89906
G0 F6000 X99.5 Y99.5
G1 F1200 X135.5 Y99.5 E52.09642
G1 X135.5 Y111.525 E52.49637
G1 X135.2 Y111.5 E52.50639
G1 X99.8 Y111.5 E53.6838
G1 X99.5 Y111.526 E53.69381
G1 X99.5 Y99.5 E54.0938
G0 F6000 X99.9 Y99.9
G1 F1200 X135.1 Y99.9 E55.26455
G1 X135.1 Y111.1 E55.63707
G1 X99.9 Y111.1 E56.80782
G1 X99.9 Y99.9 E57.18034
G0 F6000 X100.3 Y100.3
G1 F1200 X134.7 Y100.3 E58.32449
G1 X134.7 Y110.7 E58.67039
G1 X100.3 Y110.7 E59.81454
G1 X100.3 Y100.3 E60.16045
G0 F6000 X100.7 Y100.7
G1 F1200 X134.3 Y100.7 E61.27799
G1 X134.3 Y110.3 E61.59728
G1 X100.7 Y110.3 E62.71482
G1 X100.7 Y100.7 E63.03412
G1 F2700 E58.03412
G0 F6000 X100.235 Y100.7
G0 X99.8 Y112.7
G1 F2700 E63.03412
G1 F1200 X99.468 Y112.74 E63.04524
G1 X99.156 Y112.857 E63.05633
G1 X98.879 Y113.045 E63.06746
G1 X98.656 Y113.293 E63.07855
G1 X98.497 Y113.587 E63.08967
G1 X98.413 Y113.911 E63.1008
G1 X98.4 Y114.1 E63.10711
G1 X98.4 Y135.2 E63.80889
G1 X98.44 Y135.532 E63.82002
G1 X98.557 Y135.844 E63.8311
G1 X98.745 Y136.121 E63.84223
G1 X98.993 Y136.344 E63.85333
G1 X99.287 Y136.503 E63.86444
G1 X99.611 Y136.587 E63.87558
G1 X99.8 Y136.6 E63.88188
G1 X135.2 Y136.6 E65.05929
G1 X135.532 Y136.56 E65.07041
G1 X135.844 Y136.443 E65.08149
G1 X136.121 Y136.255 E65.09263
G1 X136.344 Y136.007 E65.10372
G1 X136.503 Y135.713 E65.11483
G1 X136.587 Y135.389 E65.12597
G1 X136.6 Y135.2 E65.13227
G1 X136.6 Y114.1 E65.83406
G1 X136.56 Y113.768 E65.84518
G1 X136.443 Y113.456 E65.85626
G1 X136.255 Y113.179 E65.8674
G1 X136.007 Y112.956 E65.87849
G1 X135.713 Y112.797 E65.88961
G1 X135.389 Y112.713 E65.90074
G1 X135.2 Y112.7 E65.90704
G1 X99.8 Y112.7 E67.08445
G0 F6000 X99.8 Y113.1
G1 F1200 X99.521 Y113.14 E67.09382
G1 X99.264 Y113.256 E67.1032
G1 X99.049 Y113.439 E67.11259
G1 X98.895 Y113.675 E67.12196
G1 X98.812 Y113.945 E67.13136
G1 X98.8 Y114.1 E67.13653
G1 X98.8 Y135.2 E67.83832
G1 X98.84 Y135.479 E67.84769
G1 X98.956 Y135.736 E67.85707
G1 X99.139 Y135.951 E67.86646
G1 X99.375 Y136.105 E67.87584
G1 X99.645 Y136.188 E67.88523
G1 X99.8 Y136.2 E67.8904
G1 X135.2 Y136.2 E69.06781
G1 X135.479 Y136.16 E69.07718
G1 X135.736 Y136.044 E69.08656
G1 X135.951 Y135.861 E69.09595
G1 X136.105 Y135.625 E69.10533
G1 X136.188 Y135.355 E69.11472
G1 X136.2 Y135.2 E69.11989
G1 X136.2 Y114.1 E69.82168
G1 X136.16 Y113.821 E69.83106
G1 X136.044 Y113.564 E69.84043
G1 X135.861 Y113.349 E69.84982
G1 X135.625 Y113.195 E69.8592
G1 X135.355 Y113.112 E69.86859
G1 X135.2 Y113.1 E69.87376
G1 X99.8 Y113.1 E71.05117
G0 F6000 X99.8 Y113.5
G1 F1200 X99.585 Y113.54 E71.05844
G1 X99.399 Y113.653 E71.06568
G1 X99.266 Y113.826 E71.07294
G1 X99.2 Y114.1 E71.08232
G1 X99.2 Y135.2 E71.7841
G1 X99.24 Y135.415 E71.79138
G1 X99.353 Y135.601 E71.79862
G1 X99.526 Y135.734 E71.80587
G1 X99.8 Y135.8 E71.81525
G1 X135.2 Y135.8 E72.99266
G1 X135.415 Y135.76 E72.99993
G1 X135.601 Y135.647 E73.00717
G1 X135.734 Y135.474 E73.01443
G1 X135.8 Y135.2 E73.0238
G1 X135.8 Y114.1 E73.72559
G1 X135.76 Y113.885 E73.73286
G1 X135.647 Y113.699 E73.7401
G1 X135.474 Y113.566 E73.74736
G1 X135.2 Y113.5 E73.75673
G1 X99.8 Y113.5 E74.93414
G0 F6000 X99.8 Y113.9
G1 F1200 X99.681 Y113.939 E74.93831
G1 X99.6 Y114.1 E74.9443
G1 X99.6 Y135.2 E75.64609
G1 X99.639 Y135.319 E75.65026
G1 X99.8 Y135.4 E75.65625
G1 X135.2 Y135.4 E76.83366
G1 X135.319 Y135.361 E76.83782
G1 X135.4 Y135.2 E76.84382
G1 X135.4 Y114.1 E77.54561
G1 X135.361 Y113.981 E77.54977
G1 X135.2 Y113.9 E77.55577
G1 X99.8 Y113.9 E78.73318
G1 F2700 E73.73318
G0 F6000 X101.1 Y110.765
G0 X101.1 Y109.9
;TYPE:SUPPORT
G1 F2700 E78.73318
G1 F1200 X101.1 Y101.1 E79.02586
G1 X133.9 Y101.1 E80.1168
G1 X133.9 Y109.9 E80.40949
G1 X101.1 Y109.9 E81.50042
G1 F2700 E76.50042
G0 F6000 X101.18 Y108
G1 F2700 E81.50042
G1 F1200 X133.82 Y108 E82.58603
G1 F2700 E77.58603
G0 F6000 X132 Y109.82
G1 F2700 E82.58603
G1 F1200 X132 Y101.18 E82.8734
G1 F2700 E77.8734
G0 F6000 X132 Y100.235
G0 X134.753 Y100.247
G0 X134.765 Y104
G0 X133.82 Y104
G1 F2700 E82.8734
G1 F1200 X101.18 Y104 E83.95901
G1 F2700 E78.95901
G0 F6000 X100.235 Y104
G0 X100.247 Y100.247
G0 X104 Y100.235
G0 X104 Y101.18
G1 F2700 E83.95901
G1 F1200 X104 Y109.82 E84.24638
G1 F2700 E79.24638
G0 F6000 X104 Y110.765
G0 X108 Y110.765
G0 X108 Y109.82
G1 F2700 E84.24638
G1 F1200 X108 Y101.18 E84.53374
G1 F2700 E79.53374
G0 F6000 X108 Y100.235
G0 X112 Y100.235
G0 X112 Y101.18
G1 F2700 E84.53374
G1 F1200 X112 Y109.82 E84.82111
G1 F2700 E79.82111
G0 F6000 X112 Y110.765
G0 X116 Y110.765
G0 X116 Y109.82
G1 F2700 E84.82111
G1 F1200 X116 Y101.18 E85.10848
G1 F2700 E80.10848
G0 F6000 X116 Y100.235
G0 X120 Y100.235
G0 X120 Y101.18
G1 F2700 E85.10848
G1 F1200 X120 Y109.82 E85.39585
G1 F2700 E80.39585
G0 F6000 X120 Y110.765
G0 X124 Y110.765
G0 X124 Y109.82
G1 F2700 E85.39585
G1 F1200 X124 Y101.18 E85.68321
G1 F2700 E80.68321
G0 F6000 X124 Y100.235
G0 X128 Y100.235
G0 X128 Y101.18
G1 F2700 E85.68321
G1 F1200 X128 Y109.82 E85.97058
G1 F2700 E80.97058
;MESH:multimtr.stl
G0 F6000 X127.249 Y118.719
G0 X107.389 Y132.481
;TYPE:WALL-INNER
G1 F2700 E85.97058
G1 F1200 X107.196 Y132.231 E85.98109
G1 X107.15 Y132 E85.98892
G1 X107.15 Y119.391 E86.4083
G1 X107.232 Y119.195 E86.41536
G1 X107.35 Y119.052 E86.42153
G1 X107.674 Y118.9 E86.43343
G1 X127.25 Y118.9 E87.08453
G1 X127.471 Y118.942 E87.09202
G1 X127.65 Y119.052 E87.099
G1 X127.768 Y119.195 E87.10517
G1 X127.85 Y119.391 E87.11224
G1 X127.85 Y132 E87.53161
G1 X127.804 Y132.231 E87.53945
G1 X127.611 Y132.481 E87.54995
G1 X127.335 Y132.6 E87.55995
G1 X107.75 Y132.6 E88.21135
G1 X107.389 Y132.481 E88.22399
G1 F2700 E83.22399
G0 F6000 X107.389 Y132.5
G0 X107.029 Y132.3
G0 X107.029 Y133.6
G0 X101.2 Y133.8
G1 F2700 E88.22399
G1 F1200 X133.8 Y133.8 E89.30827
G1 X133.8 Y115.5 E89.91693
G1 X101.201 Y115.501 E91.00118
G1 X101.2 Y133.8 E91.60981
G0 F6000 X100.8 Y134.2
;TYPE:WALL-OUTER
G1 F1200 X134.2 Y134.2 E92.72069
G1 X134.2 Y115.1 E93.35596
G1 X100.801 Y115.101 E94.46682
G1 X100.8 Y134.2 E95.10205
G1 F2700 E90.10205
G0 F6000 X101.07 Y133.93
G0 X127.371 Y133.6
G0 X127.359 Y132.781
G0 X127.371 Y132.161
G1 F2700 E95.10205
G1 F1200 X127.285 Y132.198 E95.10517
G1 X107.75 Y132.2 E95.7549
G1 X107.629 Y132.161 E95.75913
G1 X107.55 Y132.057 E95.76348
G1 X107.55 Y119.5 E96.18112
G1 X107.616 Y119.35 E96.18657
G1 X107.715 Y119.302 E96.19023
G1 X127.307 Y119.3 E96.84187
G1 X127.423 Y119.398 E96.84692
G1 X127.45 Y119.5 E96.85043
G1 X127.45 Y132.057 E97.26807
G1 X127.371 Y132.161 E97.27242
G1 F2700 E92.27242
G0 F6000 X127.371 Y132.5
G0 X107.28 Y132.625
G0 X101.381 Y132.623
G0 X101.56 Y133.44
;TYPE:SKIN
G1 F2700 E97.27242
G1 F1200 X101.562 Y115.862 E97.85706
G1 X133.44 Y115.86 E98.91733
G1 X133.44 Y133.44 E99.50204
G1 X127.917 Y133.44 E99.68574
G1 F1140.1 X127.43 Y133.419 E99.7028
G1 F1073.8 X107.613 Y133.415 E100.43937
